X:84
T: WER REITET SO SPAET DURCH NACHT UND WIND
N: B0113A
O: Europa, Mitteleuropa, Deutschland
R: Ballade, Romanze
M: 3/8
L: 1/8
K: G
D | DDD | G2G | A2A | _B2
A | _B2B | AAA | G2G | d2
d | d2d | ccc | _B2B | A2
A | A2A | _BBB | G2A | G2

